X:1
T:Twickenham Ferry
C:Pat Shaw
S:Thomas Bending, June 2002
H:was Anon033
M:3/4
L:1/4
R:Triple-time
Q:1/4=160
K:G
d | g>f e | d c B | A B G | F E D | G>A B | d e B | d e B | d e f | g |]



